packages/foundations/assets/icons/functional/images/technology/wifi_disabled.svg

<svg xmlns="http://www.w3.org/2000/svg" width="32" height="32" fill="none"><path fill="#1A1C1F" fill-rule="evenodd" d="M26.613 4.084c-.114.049-.839.732-1.875 1.766L23.05 7.536l-.658-.27a17 17 0 0 0-3.964-1.088c-.907-.14-2.93-.191-3.929-.1-4.584.417-8.832 2.716-11.751 6.36-.632.788-.742.985-.737 1.325a.97.97 0 0 0 1.516.811c.078-.052.388-.406.69-.787 2.246-2.838 5.42-4.803 8.876-5.493 1.062-.212 1.64-.263 2.96-.261 1.394.002 2.23.099 3.453.398.637.156 1.869.553 1.946.628.022.021-.483.56-1.122 1.198l-1.162 1.16-.797-.159c-3.48-.697-6.855.101-9.755 2.307-.909.691-2.37 2.253-2.74 2.928-.266.485-.056 1.131.445 1.374.277.134.637.126.923-.022.086-.045.387-.378.669-.741 1.6-2.063 3.698-3.385 6.207-3.913.608-.128.798-.144 1.8-.147.616-.002 1.214.016 1.329.04l.209.044-1.508 1.509c-1.501 1.501-1.51 1.509-1.809 1.574-.738.16-1.848.697-2.599 1.256-.947.707-1.934 1.838-2.049 2.349-.055.242.05.623.222.806l.121.129L7 23.589c-1.962 1.963-2.862 2.899-2.918 3.036a.9.9 0 0 0 .017.762c.141.31.432.545.731.59.56.084-.347.944 11.829-11.221C24.427 8.994 27.828 5.562 27.898 5.413c.243-.518.031-1.061-.511-1.312a.92.92 0 0 0-.774-.017m-.794 6.337-.708.709.445.364c.68.559 1.618 1.525 2.225 2.293.618.781.84.954 1.231.954.713 0 1.192-.772.883-1.423-.103-.217-.873-1.193-1.436-1.82-.367-.408-1.517-1.488-1.796-1.687l-.137-.098zm-3.578 3.578c-.394.395-.705.726-.692.737l.451.335c.564.418 1.538 1.365 1.957 1.902.534.685.642.798.869.901a.964.964 0 0 0 1.338-.627c.064-.218.068-.324.022-.508-.16-.633-2.067-2.709-3.095-3.369l-.135-.087zm-3.587 3.588-.731.733.545.282c.72.372 1.387.915 1.839 1.495.493.633.656.782.944.862.195.055.292.056.459.006.274-.082.575-.348.697-.618.19-.417.114-.668-.399-1.325a9.1 9.1 0 0 0-1.936-1.793c-.313-.207-.595-.376-.628-.376-.032 0-.388.33-.79.734m-3.294 3.484c-.436.084-1.089.451-1.455.817-1.192 1.191-1.198 3.038-.014 4.221 1.187 1.188 3.036 1.175 4.239-.03.703-.703 1-1.7.798-2.676-.225-1.09-1.241-2.106-2.331-2.331a3.8 3.8 0 0 0-1.237-.001m1.118 2.081c.378.212.593.704.484 1.109-.108.398-.583.752-1.01.752-.163 0-.488-.144-.636-.282-.538-.503-.307-1.468.406-1.694.199-.063.528-.013.756.115"/></svg>

<svg width="32" height="32" viewBox="0 0 32 32" fill="none" xmlns="http://www.w3.org/2000/svg"><path d="M26.613 4.084 C 26.499 4.133,25.774 4.816,24.738 5.850 L 23.050 7.536 22.392 7.266 C 21.115 6.744,19.854 6.398,18.428 6.178 C 17.521 6.038,15.498 5.987,14.499 6.078 C 9.915 6.495,5.667 8.794,2.748 12.438 C 2.116 13.226,2.006 13.423,2.011 13.763 C 2.021 14.557,2.871 15.012,3.527 14.574 C 3.605 14.522,3.915 14.168,4.217 13.787 C 6.463 10.949,9.637 8.984,13.093 8.294 C 14.155 8.082,14.733 8.031,16.053 8.033 C 17.447 8.035,18.283 8.132,19.506 8.431 C 20.143 8.587,21.375 8.984,21.452 9.059 C 21.474 9.080,20.969 9.619,20.330 10.257 L 19.168 11.417 18.371 11.258 C 14.891 10.561,11.516 11.359,8.616 13.565 C 7.707 14.256,6.246 15.818,5.876 16.493 C 5.610 16.978,5.820 17.624,6.321 17.867 C 6.598 18.001,6.958 17.993,7.244 17.845 C 7.330 17.800,7.631 17.467,7.913 17.104 C 9.513 15.041,11.611 13.719,14.120 13.191 C 14.728 13.063,14.918 13.047,15.920 13.044 C 16.536 13.042,17.134 13.060,17.249 13.084 L 17.458 13.128 15.950 14.637 C 14.449 16.138,14.440 16.146,14.141 16.211 C 13.403 16.371,12.293 16.908,11.542 17.467 C 10.595 18.174,9.608 19.305,9.493 19.816 C 9.438 20.058,9.543 20.439,9.715 20.622 L 9.836 20.751 7.000 23.589 C 5.038 25.552,4.138 26.488,4.082 26.625 C 3.975 26.885,3.980 27.124,4.099 27.387 C 4.240 27.697,4.531 27.932,4.830 27.977 C 5.390 28.061,4.483 28.921,16.659 16.756 C 24.427 8.994,27.828 5.562,27.898 5.413 C 28.141 4.895,27.929 4.352,27.387 4.101 C 27.130 3.982,26.865 3.976,26.613 4.084 M25.819 10.421 L 25.111 11.130 25.556 11.494 C 26.236 12.053,27.174 13.019,27.781 13.787 C 28.399 14.568,28.621 14.741,29.012 14.741 C 29.725 14.741,30.204 13.969,29.895 13.318 C 29.792 13.101,29.022 12.125,28.459 11.498 C 28.092 11.090,26.942 10.010,26.663 9.811 L 26.526 9.713 25.819 10.421 M22.241 13.999 C 21.847 14.394,21.536 14.725,21.549 14.736 C 21.562 14.746,21.765 14.897,22.000 15.071 C 22.564 15.489,23.538 16.436,23.957 16.973 C 24.491 17.658,24.599 17.771,24.826 17.874 C 25.377 18.124,25.993 17.835,26.164 17.247 C 26.228 17.029,26.232 16.923,26.186 16.739 C 26.026 16.106,24.119 14.030,23.091 13.370 L 22.956 13.283 22.241 13.999 M18.654 17.587 L 17.923 18.320 18.468 18.602 C 19.188 18.974,19.855 19.517,20.307 20.097 C 20.800 20.730,20.963 20.879,21.251 20.959 C 21.446 21.014,21.543 21.015,21.710 20.965 C 21.984 20.883,22.285 20.617,22.407 20.347 C 22.597 19.930,22.521 19.679,22.008 19.022 C 21.518 18.394,20.726 17.661,20.072 17.229 C 19.759 17.022,19.477 16.853,19.444 16.853 C 19.412 16.853,19.056 17.183,18.654 17.587 M15.360 21.071 C 14.924 21.155,14.271 21.522,13.905 21.888 C 12.713 23.079,12.707 24.926,13.891 26.109 C 15.078 27.297,16.927 27.284,18.130 26.079 C 18.833 25.376,19.130 24.379,18.928 23.403 C 18.703 22.313,17.687 21.297,16.597 21.072 C 16.272 21.004,15.708 21.004,15.360 21.071 M16.478 23.152 C 16.856 23.364,17.071 23.856,16.962 24.261 C 16.854 24.659,16.379 25.013,15.952 25.013 C 15.789 25.013,15.464 24.869,15.316 24.731 C 14.778 24.228,15.009 23.263,15.722 23.037 C 15.921 22.974,16.250 23.024,16.478 23.152 " fill="#1A1C1F" stroke="none" fill-rule="evenodd"></path></svg>
